Faba/24x24/actions/edit-find.svg

<?xml version="1.0" encoding="UTF-8" standalone="no"?>
<!-- Created with Inkscape (http://www.inkscape.org/) -->

<svg
   xmlns:dc="http://purl.org/dc/elements/1.1/"
   xmlns:cc="http://creativecommons.org/ns#"
   xmlns:rdf="http://www.w3.org/1999/02/22-rdf-syntax-ns#"
   xmlns:svg="http://www.w3.org/2000/svg"
   xmlns="http://www.w3.org/2000/svg"
   xmlns:sodipodi="http://sodipodi.sourceforge.net/DTD/sodipodi-0.dtd"
   xmlns:inkscape="http://www.inkscape.org/namespaces/inkscape"
   width="24"
   height="24"
   id="svg3495"
   version="1.1"
   inkscape:version="0.48.4 r9939"
   sodipodi:docname="edit-find.svg">
  <defs
     id="defs3497">
    <clipPath
       clipPathUnits="userSpaceOnUse"
       id="clipPath3669">
      <path
         inkscape:connector-curvature="0"
         d="M 0,96 96,96 96,0 0,0 0,96 z"
         id="path3671" />
    </clipPath>
  </defs>
  <sodipodi:namedview
     id="base"
     pagecolor="#ffffff"
     bordercolor="#666666"
     borderopacity="1.0"
     inkscape:pageopacity="0.0"
     inkscape:pageshadow="2"
     inkscape:zoom="1"
     inkscape:cx="6.4157282"
     inkscape:cy="9.1327999"
     inkscape:current-layer="layer1"
     showgrid="false"
     inkscape:grid-bbox="true"
     inkscape:document-units="px"
     inkscape:window-width="1364"
     inkscape:window-height="701"
     inkscape:window-x="0"
     inkscape:window-y="27"
     inkscape:window-maximized="1"
     inkscape:snap-bbox="true"
     inkscape:bbox-paths="true"
     inkscape:bbox-nodes="true"
     inkscape:snap-bbox-edge-midpoints="false">
    <inkscape:grid
       type="xygrid"
       id="grid3512"
       empspacing="4"
       visible="true"
       enabled="true"
       snapvisiblegridlinesonly="true"
       dotted="false" />
  </sodipodi:namedview>
  <metadata
     id="metadata3500">
    <rdf:RDF>
      <cc:Work
         rdf:about="">
        <dc:format>image/svg+xml</dc:format>
        <dc:type
           rdf:resource="http://purl.org/dc/dcmitype/StillImage" />
        <dc:title />
      </cc:Work>
    </rdf:RDF>
  </metadata>
  <g
     id="layer1"
     inkscape:label="Layer 1"
     inkscape:groupmode="layer"
     transform="translate(1,-25)">
    <path
       style="color:#000000;fill:#555555;fill-opacity:1;fill-rule:nonzero;stroke:none;stroke-width:2;marker:none;visibility:visible;display:inline;overflow:visible;enable-background:accumulate"
       d="M 14 1 C 10.134007 1 7 4.1340068 7 8 C 7 9.5784731 7.5248273 11.016576 8.40625 12.1875 L 8.28125 12.28125 L 2.28125 18.28125 L 1.59375 19 L 3 20.40625 L 3.71875 19.71875 L 9.71875 13.71875 L 9.8125 13.59375 C 10.983424 14.475173 12.421527 15 14 15 C 17.865993 15 21 11.865993 21 8 C 21 4.1340068 17.865993 1 14 1 z M 14 3 C 16.761424 3 19 5.2385763 19 8 C 19 10.761424 16.761424 13 14 13 C 11.238576 13 9 10.761424 9 8 C 9 5.2385763 11.238576 3 14 3 z "
       transform="translate(0,26)"
       id="path2993" />
    <path
       id="path3778"
       d="m 14,25.99975 c -3.865993,0 -7,3.134007 -7,7 0,1.578473 0.5248273,3.016576 1.40625,4.1875 l -0.125,0.09375 -6,6 -0.6875,0.71875 L 3,45.406 l 0.71875,-0.6875 6,-6 0.09375,-0.125 c 1.170924,0.881423 2.609027,1.40625 4.1875,1.40625 3.865993,0 7,-3.134007 7,-7 0,-3.865993 -3.134007,-7 -7,-7 z m 0,2 c 2.761424,0 5,2.238576 5,5 0,2.761424 -2.238576,5 -5,5 -2.761424,0 -5,-2.238576 -5,-5 0,-2.761424 2.238576,-5 5,-5 z"
       style="opacity:0.1;color:#000000;fill:#ffffff;fill-opacity:1;fill-rule:nonzero;stroke:none;stroke-width:2;marker:none;visibility:visible;display:inline;overflow:visible;enable-background:accumulate"
       inkscape:connector-curvature="0" />
  </g>
</svg>

<svg xmlns="http://www.w3.org/2000/svg" viewBox="0 0 24 24"><defs><clipPath><path d="m0 96h96v-96h-96v96"/></clipPath></defs><g transform="translate(1-25)" color="#000"><path d="m14 1c-3.866 0-7 3.134-7 7 0 1.578.525 3.02 1.406 4.188l-.125.094-6 6-.688.719 1.406 1.406.719-.688 6-6 .094-.125c1.171.881 2.609 1.406 4.188 1.406 3.866 0 7-3.134 7-7 0-3.866-3.134-7-7-7m0 2c2.761 0 5 2.239 5 5 0 2.761-2.239 5-5 5-2.761 0-5-2.239-5-5 0-2.761 2.239-5 5-5" transform="translate(0 26)" fill="#555"/><path d="m14 26c-3.866 0-7 3.134-7 7 0 1.578.525 3.02 1.406 4.188l-.125.094-6 6-.688.719 1.406 1.406.719-.688 6-6 .094-.125c1.171.881 2.609 1.406 4.188 1.406 3.866 0 7-3.134 7-7 0-3.866-3.134-7-7-7m0 2c2.761 0 5 2.239 5 5 0 2.761-2.239 5-5 5-2.761 0-5-2.239-5-5 0-2.761 2.239-5 5-5" opacity=".1" fill="#fff"/></g></svg>
